X:2
T:Ma'oz Tzur
C:trad., arr. T. Traub 12-21-2003
M:4/4
K:Dmaj
L:1/4
%%MIDI program 1 57  %name="Trombone"
|:"D"D A, D "G"G|"D"F "A"E "D"D > A|"D"A "G"B "Em"E FG
|1 "A"F E "D"D2 :|2"A"F E "D"D>A||
w:Ma-oz tzur y'-shu-a-ti l'-cha na-e l'-sha-be -ach
w:ti-kon bet t'-fi-la-ti v'-sham to-da n'-za-*** be - ach l'-
"D"A>A "G"B "A"c |"D"d2 A2|"D"d "A"c "G"B "D"A |"Em"A/2G/2F/2G/2 "A"E2|
w:et ta-chin mat-be-ach mi-tzar ham'-na-be-*** ach
|: "D"F>G A>B|"Em"E>F "A"G2|"D"F "F#"E "Bm"D "G"G/2G/2|1 "D"F G A2:|2 "D"F "A"E "D"D2|]
w:az eg-more b'-shir miz-mor cha-nu-kat ha-miz-be -ach be -ach.
